X: 41467
T: Two-Part Pour
R: polka
M: 2/4
K: Amajor
|:A>B ca|fd ec|BE EG/A/|B/c/B/A/ GE|
A>B ca|fd ec|BE GB|1 BA AE:|2 BA A2||
e/f/e/d/ cA|e/f/e/d/ cA|BE EG/A/|B/c/B/A/ GE|
e/f/e/d/ cA|e/f/e/d/ cA|BE GB|BA A2|
e/f/e/d/ ca|e/f/e/d/ ca|ga fg|ec dB|
e>d cA|e/f/e/d/ cA|BE GB|BA AE||

